images/sfp-flot.svg

<svg width="113" height="151" viewBox="0 0 113 151" fill="none" xmlns="http://www.w3.org/2000/svg">
<path d="M49.7671 130.879C23.1099 115.02 1.5 77.0181 1.5 45.9999C1.5 14.9818 23.1099 2.69316 49.7671 18.5525C76.4243 34.4119 98.0342 72.4136 98.0342 103.432C98.0342 134.45 76.4243 146.739 49.7671 130.879Z" fill="white" stroke="#0D0B33" stroke-width="1.72736"/>
<path d="M45.8992 40.3042C44.1459 39.2919 42.4644 39.1254 41.2247 39.8412L21.7505 51.0851C21.0129 51.5109 20.6441 52.4144 20.6441 53.5307C20.6441 54.647 21.0129 55.9762 21.7505 57.2538L34.5126 79.3584L34.5126 53.2696C34.5126 51.3226 35.8687 50.5273 37.5548 51.5007C44.6783 55.6135 62.0179 65.6245 64.3831 66.99L78.2515 58.983L45.8992 40.3042Z" fill="black"/>
<path d="M34.5132 84.2362L61.3307 99.7193C63.0168 100.693 64.3837 99.9036 64.3837 97.9567L64.3837 71.8678L77.1457 93.9724C77.8833 95.25 78.2521 96.5793 78.2521 97.6956C78.2521 98.8119 77.8833 99.7153 77.1457 100.141L57.6715 111.385C56.4318 112.101 54.7503 111.934 52.997 110.922L20.6447 92.2433L34.5132 84.2362Z" fill="black"/>
<path d="M49.7671 18.5525C36.5834 10.709 24.6341 9.75039 15.923 14.5373L25.5032 9.08948C44.3527 -1.6294 74.9138 16.5525 93.7633 49.6999C112.613 82.8474 112.613 118.408 93.7633 129.127L84.5495 134.366C84.5501 134.36 84.5507 134.354 84.5513 134.348C92.9007 129.219 98.0342 118.55 98.0342 103.432C98.0342 72.4136 76.4243 34.4119 49.7671 18.5525Z" fill="#79EFBD" stroke="#0D0B33" stroke-width="1.72736"/>
<path d="M97.7245 96.85L107.592 91.3772C107.453 86.0971 106.853 82.2851 104.817 74.0723L94.4039 79.8638C96.0759 85.5735 97.2122 91.2873 97.7245 96.85Z" fill="#0D0B33"/>
<path d="M89.9343 67.4597L99.5902 61.8097C89.2689 39.6683 81.3821 29.2504 63.0297 14.8146L53.0107 20.6071C68.4148 30.9609 81.8426 48.5478 89.9343 67.4597Z" fill="#0D0B33"/>
</svg>

<svg xmlns="http://www.w3.org/2000/svg" width="113" height="151" fill="none"><path fill="#fff" stroke="#0D0B33" stroke-width="1.727" d="M49.767 130.879C23.11 115.02 1.5 77.019 1.5 45.999c0-31.017 21.61-43.306 48.267-27.447 26.657 15.86 48.267 53.862 48.267 84.88 0 31.018-21.61 43.307-48.267 27.447Z"/><path fill="#000" d="M45.9 40.304c-1.754-1.012-3.436-1.179-4.675-.463L21.75 51.085c-.737.426-1.106 1.33-1.106 2.446s.369 2.445 1.107 3.723l12.762 22.104V53.27c0-1.947 1.356-2.743 3.042-1.77 7.123 4.114 24.463 14.124 26.828 15.49l13.868-8.007L45.9 40.304ZM34.513 84.236 61.331 99.72c1.686.974 3.053.185 3.053-1.762v-26.09l12.762 22.105c.737 1.278 1.106 2.607 1.106 3.724 0 1.116-.369 2.02-1.106 2.445l-19.474 11.244c-1.24.716-2.922.549-4.675-.463L20.645 92.243l13.868-8.007Z"/><path fill="#79EFBD" stroke="#0D0B33" stroke-width="1.727" d="M49.767 18.552C36.583 10.71 24.634 9.75 15.923 14.537l9.58-5.448c18.85-10.718 49.41 7.463 68.26 40.61 18.85 33.148 18.85 68.709 0 79.428l-9.214 5.239.002-.018c8.35-5.129 13.483-15.798 13.483-30.916 0-31.018-21.61-69.02-48.267-84.88Z"/><path fill="#0D0B33" d="m97.725 96.85 9.867-5.473c-.139-5.28-.739-9.092-2.775-17.305l-10.413 5.792c1.672 5.71 2.808 11.423 3.32 16.986ZM89.934 67.46l9.656-5.65C89.27 39.668 81.382 29.25 63.03 14.815l-10.02 5.792c15.405 10.354 28.833 27.94 36.924 46.853Z"/></svg>
